Resources/Private/Icons/solid/pen-ruler.svg

<svg xmlns="http://www.w3.org/2000/svg" viewBox="0 0 512 512"><!--! Font Awesome Free 6.1.1 by @fontawesome - https://fontawesome.com License - https://fontawesome.com/license/free (Icons: CC BY 4.0, Fonts: SIL OFL 1.1, Code: MIT License) Copyright 2022 Fonticons, Inc. --><path d="M492.7 42.75C517.7 67.74 517.7 108.3 492.7 133.3L436.3 189.7L322.3 75.72L378.7 19.32C403.7-5.678 444.3-5.678 469.3 19.32L492.7 42.75zM44.89 353.2L299.7 98.34L413.7 212.3L158.8 467.1C152.1 473.8 143.8 478.7 134.6 481.4L30.59 511.1C22.21 513.5 13.19 511.1 7.03 504.1C.8669 498.8-1.47 489.8 .9242 481.4L30.65 377.4C33.26 368.2 38.16 359.9 44.89 353.2zM249.4 103.4L103.4 249.4L16 161.9C-2.745 143.2-2.745 112.8 16 94.06L94.06 16C112.8-2.745 143.2-2.745 161.9 16L181.7 35.76C181.4 36.05 181 36.36 180.7 36.69L116.7 100.7C110.4 106.9 110.4 117.1 116.7 123.3C122.9 129.6 133.1 129.6 139.3 123.3L203.3 59.31C203.6 58.99 203.1 58.65 204.2 58.3L249.4 103.4zM453.7 307.8C453.4 308 453 308.4 452.7 308.7L388.7 372.7C382.4 378.9 382.4 389.1 388.7 395.3C394.9 401.6 405.1 401.6 411.3 395.3L475.3 331.3C475.6 330.1 475.1 330.6 476.2 330.3L496 350.1C514.7 368.8 514.7 399.2 496 417.9L417.9 496C399.2 514.7 368.8 514.7 350.1 496L262.6 408.6L408.6 262.6L453.7 307.8z"/></svg>

<svg xmlns="http://www.w3.org/2000/svg" viewBox="0 0 512 512"><!--! Font Awesome Free 6.2.0 by @fontawesome - https://fontawesome.com License - https://fontawesome.com/license/free (Icons: CC BY 4.0, Fonts: SIL OFL 1.1, Code: MIT License) Copyright 2022 Fonticons, Inc. --><path d="M469.3 19.3l23.4 23.4c25 25 25 65.5 0 90.5l-56.4 56.4L322.3 75.7l56.4-56.4c25-25 65.5-25 90.5 0zM44.9 353.2L299.7 98.3 413.7 212.3 158.8 467.1c-6.7 6.7-15.1 11.6-24.2 14.2l-104 29.7c-8.4 2.4-17.4 .1-23.6-6.1s-8.5-15.2-6.1-23.6l29.7-104c2.6-9.2 7.5-17.5 14.2-24.2zM249.4 103.4L103.4 249.4 16 161.9c-18.7-18.7-18.7-49.1 0-67.9L94.1 16c18.7-18.7 49.1-18.7 67.9 0l19.8 19.8c-.3 .3-.7 .6-1 .9l-64 64c-6.2 6.2-6.2 16.4 0 22.6s16.4 6.2 22.6 0l64-64c.3-.3 .6-.7 .9-1l45.1 45.1zM408.6 262.6l45.1 45.1c-.3 .3-.7 .6-1 .9l-64 64c-6.2 6.2-6.2 16.4 0 22.6s16.4 6.2 22.6 0l64-64c.3-.3 .6-.7 .9-1L496 350.1c18.7 18.7 18.7 49.1 0 67.9L417.9 496c-18.7 18.7-49.1 18.7-67.9 0l-87.4-87.4L408.6 262.6z"/></svg>
